images/next.svg

<svg fill="none" height="48" viewBox="0 0 48 48" width="48" xmlns="http://www.w3.org/2000/svg" xmlns:xlink="http://www.w3.org/1999/xlink"><mask id="a" height="32" maskUnits="userSpaceOnUse" width="32" x="8" y="8"><path clip-rule="evenodd" d="m22.6251 9.01409c-.7594.75936-.7594 1.99051 0 2.74991l10.2917 10.2917h-22.5279c-1.07392 0-1.94447.8705-1.94447 1.9444s.87055 1.9445 1.94447 1.9445h22.5279l-10.2917 10.2917c-.7594.7594-.7594 1.9905 0 2.7499.7593.7593 1.9905.7593 2.7498 0l13.6111-13.6111c.3682-.3682.5578-.8473.569-1.3297.0007-.0312.0007-.0625-.0001-.0937-.0059-.2418-.0559-.4727-.1424-.6849-.0949-.2335-.2371-.4522-.4265-.6416l-13.6111-13.61111c-.7593-.75935-1.9905-.75935-2.7498 0z" fill="#fff" fill-rule="evenodd"/></mask><path clip-rule="evenodd" d="m22.6251 9.01409c-.7594.75936-.7594 1.99051 0 2.74991l10.2917 10.2917h-22.5279c-1.07392 0-1.94447.8705-1.94447 1.9444s.87055 1.9445 1.94447 1.9445h22.5279l-10.2917 10.2917c-.7594.7594-.7594 1.9905 0 2.7499.7593.7593 1.9905.7593 2.7498 0l13.6111-13.6111c.3682-.3682.5578-.8473.569-1.3297.0007-.0312.0007-.0625-.0001-.0937-.0059-.2418-.0559-.4727-.1424-.6849-.0949-.2335-.2371-.4522-.4265-.6416l-13.6111-13.61111c-.7593-.75935-1.9905-.75935-2.7498 0z" fill="#212121" fill-rule="evenodd"/><g mask="url(#a)"><path d="m.666656.666748h46.6667v46.6667h-46.6667z" fill="#464447"/></g></svg>

<svg width="48" height="48" viewBox="0 0 48 48" fill="none" xmlns="http://www.w3.org/2000/svg">
<path fill-rule="evenodd" clip-rule="evenodd" d="M22.6251 9.01409C21.8657 9.77345 21.8657 11.0046 22.6251 11.764L32.9168 22.0557H10.3889C9.31498 22.0557 8.44443 22.9262 8.44443 24.0001C8.44443 25.074 9.31498 25.9446 10.3889 25.9446H32.9168L22.6251 36.2363C21.8657 36.9957 21.8657 38.2268 22.6251 38.9862C23.3844 39.7455 24.6156 39.7455 25.3749 38.9862L38.986 25.3751C39.3542 25.0069 39.5438 24.5278 39.555 24.0454C39.5557 24.0142 39.5557 23.9829 39.5549 23.9517C39.549 23.7099 39.499 23.479 39.4125 23.2668C39.3176 23.0333 39.1754 22.8146 38.986 22.6252L25.3749 9.01409C24.6156 8.25474 23.3844 8.25474 22.6251 9.01409Z" fill="#212121"/>
<mask id="mask0_303_1307" style="mask-type:alpha" maskUnits="userSpaceOnUse" x="8" y="8" width="32" height="32">
<path fill-rule="evenodd" clip-rule="evenodd" d="M22.6251 9.01409C21.8657 9.77345 21.8657 11.0046 22.6251 11.764L32.9168 22.0557H10.3889C9.31498 22.0557 8.44443 22.9262 8.44443 24.0001C8.44443 25.074 9.31498 25.9446 10.3889 25.9446H32.9168L22.6251 36.2363C21.8657 36.9957 21.8657 38.2268 22.6251 38.9862C23.3844 39.7455 24.6156 39.7455 25.3749 38.9862L38.986 25.3751C39.3542 25.0069 39.5438 24.5278 39.555 24.0454C39.5557 24.0142 39.5557 23.9829 39.5549 23.9517C39.549 23.7099 39.499 23.479 39.4125 23.2668C39.3176 23.0333 39.1754 22.8146 38.986 22.6252L25.3749 9.01409C24.6156 8.25474 23.3844 8.25474 22.6251 9.01409Z" fill="white"/>
</mask>
<g mask="url(#mask0_303_1307)">
<rect x="0.666656" y="0.666748" width="46.6667" height="46.6667" fill="#464447"/>
</g>
</svg>
